img/svg/burger.svg

<svg width="15" height="12" viewBox="0 0 15 12" fill="none" xmlns="http://www.w3.org/2000/svg">
<path fill-rule="evenodd" clip-rule="evenodd" d="M0 0H15V1.5H0V0ZM0 5.25H15V6.75H0V5.25ZM15 10.5H0V12H15V10.5Z" fill="#0BBA74"/>
</svg>

<svg width="15" height="12" viewBox="0 0 15 12" fill="none" xmlns="http://www.w3.org/2000/svg"><path fill-rule="evenodd" clip-rule="evenodd" d="M0 0h15v1.5H0V0zm0 5.25h15v1.5H0v-1.5zm15 5.25H0V12h15v-1.5z" fill="#0BBA74"/></svg>
